X:1
T:天空之城
M:4/4
L:1/8
V:1
Q:1/4=80
K:C
|z6A,B,|C3B,C2E2|B,6E,2|A,3G,A,2C2|
|G,6E,2|F,3E,F,C3|E,6C2|B,3^F,F,2B,2|
|B,6A,B,|C3B,C2E2|B,6E,E,|A,3G,A,2C2|
|G,6E,2|F,2CB,3C2|D2EC-C4|CB,A,2B,2^G,2|
|A,6CD|E3DE2G2|D6G,2|C3B,C2DE|
|E8|A,B,C2B,CD2|C3G,G,4|F2E2D2C2|
|E6E2|A3AG3G|EDC2C4|D3CD2G2|
|E6E2|A3AG3G|EDC2C4|D3CD2B,2|
|A,6z2|